X: 27585
T: Monster Of Polska
R: three-two
M: 3/2
K: Dmajor
|:a3g f2a2 g2f2|a3g f2a2g2f2|_b3a g2_b2a2g2|_b3ag2_b2 c'4:|
d3c d2e2f2d2|dedc dfag fgfe|d3c d2e2f2d2|dedc dfag fgfe|
d3c d2e2f2d2|dedc dfag fgfe|d3c d2e2f2d2|fgfe ded=c_ B=c_BA|G4|
K:Gmin
|:G,3B,D2G2B2D2|=E3F=E2C2 DCB,A,|G,3B,D2G2B2D2|=E3F=E2C2 D4:|

